X: 20862
T: HAMILTON SETT (tune 2)
C:
%R: jig
B: Elias Howe "The Musician's Companion" 1843 p.86 #2
N: Version 1 for ABC software that doesn't understand voice overlays.
S: http://imslp.org/wiki/The_Musician's_Companion_(Howe,_Elias)
Z: 2015 John Chambers <jc:trillian.mit.edu>
N: The d in bar 13 should probably be an e.
N: The last notes of strains 1 & 2 are missing a count; fixed by removing their flags.
M: 6/8
L: 1/8
K: F
% - - - - - - - - - - - - - - - - - - - - - - - - - - - - -
V: 1 name="2"
A/B/ |\
c=Bc Aag | .f.e.d .c.B.A | GAB Ggf | .e.d.c .B.A.G |\
c=Bc Aag | fed cBA | BAB Bge | (g3 f2) H|]
e/f/ |\
[g3G3] [eG][dF][cE] | [cAD3]=BB [B=B,3]B/c/d/e/ |\
[f3G3] fed | [g2C]{E}[eE] [c/E3]B/c/d/e/f/ |\
[g3G3] [gG][fF][dE] | [dA3]cd [fd3]ga |\
[gc3]ec BgB | d3 "^D.C."c2 |]
K: Bb
F |\
bfd BFD | B,DF Bdf | c'fd Bcd | c=ef _ecA |\
dBA GEC | A,CF Acf | ecA FGA | Bdc "^D.C."B2 |]
% - - - - - - - - - - Dance description - - - - - - - - - -
%%begintext align
%% First two forward and back,
%% cross over,
%% chassa de chassa,
%% cross back,
%% -- ladies chain,
%% promenade,
%% next two forward, &c.
%%endtext
% - - - - - - - - - - - - - - - - - - - - - - - - - - - - -
%%sep 1 1 300

%%sep 1 1 500

